Numix-Light-GalliumOS/22/status/battery-charged.svg

<?xml version="1.0" encoding="UTF-8" standalone="no"?>
<svg
   xmlns:dc="http://purl.org/dc/elements/1.1/"
   xmlns:cc="http://creativecommons.org/ns#"
   xmlns:rdf="http://www.w3.org/1999/02/22-rdf-syntax-ns#"
   xmlns:svg="http://www.w3.org/2000/svg"
   xmlns="http://www.w3.org/2000/svg"
   xmlns:sodipodi="http://sodipodi.sourceforge.net/DTD/sodipodi-0.dtd"
   xmlns:inkscape="http://www.inkscape.org/namespaces/inkscape"
   width="22"
   viewBox="0 0 22 22"
   height="22"
   id="svg2"
   version="1.1"
   inkscape:version="0.91 r"
   sodipodi:docname="xfpm-ups-charged.svg">
  <metadata
     id="metadata12">
    <rdf:RDF>
      <cc:Work
         rdf:about="">
        <dc:format>image/svg+xml</dc:format>
        <dc:type
           rdf:resource="http://purl.org/dc/dcmitype/StillImage" />
      </cc:Work>
    </rdf:RDF>
  </metadata>
  <defs
     id="defs10" />
  <sodipodi:namedview
     pagecolor="#ffffff"
     bordercolor="#666666"
     borderopacity="1"
     objecttolerance="10"
     gridtolerance="10"
     guidetolerance="10"
     inkscape:pageopacity="0"
     inkscape:pageshadow="2"
     inkscape:window-width="1280"
     inkscape:window-height="998"
     id="namedview8"
     showgrid="false"
     inkscape:zoom="12.166091"
     inkscape:cx="3.7015929"
     inkscape:cy="0.44255354"
     inkscape:window-x="0"
     inkscape:window-y="0"
     inkscape:window-maximized="1"
     inkscape:current-layer="svg2" />
  <path
     style="fill:#353535;fill-opacity:1"
     d="M 8 3 L 8 5 L 5 5 L 5 19 L 17 19 L 17 5 L 14 5 L 14 3 L 8 3 z M 14.125 8 L 16 9.84375 L 9.75 16 C 8.4679486 14.737672 7.2820513 13.574827 6 12.3125 L 7.875 10.46875 L 9.75 12.3125 L 14.125 8 z "
     id="path2991" />
</svg>

<svg xmlns="http://www.w3.org/2000/svg" viewBox="0 0 22 22">
 <path d="m 8 3 l 0 2 l -3 0 l 0 14 l 12 0 l 0 -14 l -3 0 l 0 -2 l -6 0 z m 6.125 5 l 1.875 1.844 l -6.25 6.156 c -1.282 -1.262 -2.468 -2.425 -3.75 -3.688 l 1.875 -1.844 l 1.875 1.844 l 4.375 -4.313 z" style="fill:#353535;fill-opacity:1"/>
</svg>
